X: 20652
T: John Stenson's
R: reel
M: 4/4
K: Gmajor
|:"G"GABG A2 BA|"Bm" GABG AGED|"C"GABG ABce|"D"dcBG A2 BA|
"G"GABG A2 BA|"Bm"GABG AGEG|"C"c2 cB cedc|"D"B2 A2 "C"G4:|
|:"G"d2 Bc d2 Bc|"Bm"d2 BG AGEG|"C"d2 de dcBG|"D"AcBG AGEG|
"G"d2 Bc d2 Bc|"Bm"d2 BG AGEG|"C"c2 cB cedc|"D"B2 A2 "G"G4:|

